NATIVE-FC_FX30.cube
TITLE "Generated by Resolve"
LUT_3D_SIZE 5
0.469856 0.100816 0.611231
0 0.0342412 0.53753
0 0.225254 0.707835
0.185504 0.18613 0.185657
0.185504 0.18613 0.185657
0 0.11342 0.727459
0 0.120043 0.734264
0 0.222416 0.704906
0.185504 0.18613 0.185657
0.185504 0.18613 0.185657
0.303181 0.303807 0.30341
0.246235 0.543496 0.0179446
0 0.886061 0.154467
0 0.861265 0.2392
0.309895 0.552819 0.123827
0.62562 0.625971 0.625803
0.62562 0.625971 0.625803
0.62562 0.625971 0.625803
0.800061 0.800168 0.800015
0.801389 0.80148 0.801343
0.62562 0.625971 0.625803
0.62562 0.625971 0.625803
0.62562 0.625971 0.625803
0.792065 0.792187 0.79205
0.817853 0.817945 0.817792
0.477791 0.108614 0.619104
0 0.043183 0.546563
0 0.230137 0.712795
0.185504 0.18613 0.185657
0.185504 0.18613 0.185657
0 0.104662 0.718456
0 0.116884 0.730861
0 0.228244 0.710903
0.185504 0.18613 0.185657
0.185504 0.18613 0.185657
0.308415 0.308995 0.308629
0.252857 0.550286 0.024567
0 0.874418 0.194476
0 0.849393 0.282322
0 0.891859 0.134035
0.62562 0.625971 0.625803
0.62562 0.625971 0.625803
0.62562 0.625971 0.625803
0.805829 0.805936 0.805783
0.807507 0.807614 0.807462
0.62562 0.625971 0.625803
0.62562 0.625971 0.625803
0.62562 0.625971 0.625803
0.79472 0.794842 0.79469
0.817853 0.817945 0.817792
0 0.0467842 0.550484
0 0.0932021 0.706447
0 0.310338 0.799054
0.213687 0.21442 0.213886
0.207599 0.208301 0.207782
0 0.0446632 0.548104
0 0.0498054 0.553368
0 0.315038 0.803784
0.220874 0.221637 0.221073
0.218051 0.218784 0.218235
0.230961 0.52781 0.00268559
0.260288 0.556909 0.0327611
0 0.871321 0.204883
0 0.855695 0.258885
0.318639 0.54844 0.142687
0.643244 0.643565 0.643442
0.650004 0.650324 0.650217
0.651194 0.651514 0.651408
0.812177 0.812268 0.812116
0.813916 0.814008 0.813855
0.631342 0.631678 0.631525
0.643809 0.644144 0.644022
0.646342 0.646677 0.646555
0.81088 0.810971 0.810834
0.833417 0.833478 0.833341
0 0.1149 0.728756
0 0.114992 0.728847
0 0.333989 0.823301
0 0.331945 0.443091
0 0.328817 0.439689
0 0.11371 0.727749
0 0.114916 0.728756
0.172778 0.173358 0.17293
0 0.337026 0.448173
0 0.33579 0.446784
0 0.30573 0.416251
0 0.34728 0.458701
0.238834 0.535882 0.0105287
0 0.337789 0.449042
0 0.336126 0.44712
0.658152 0.658473 0.658381
0.68011 0.6804 0.680339
0.673961 0.674266 0.674205
0.810224 0.810315 0.810178
0.816892 0.816983 0.816831
0.695399 0.695674 0.695628
0.698787 0.699062 0.699016
0.699306 0.69958 0.699535
0.943893 0.559548 0
0.836042 0.3252 0.210391
0 0.114992 0.728847
0 0.114992 0.728847
0 0.324224 0.813413
0 0.339559 0.450843
0 0.339559 0.450843
0 0.114992 0.728847
0 0.114992 0.728847
0 0.339315 0.829023
0 0.339559 0.450843
0 0.339559 0.450843
0 0.317983 0.806958
0.220554 0.221302 0.220737
0 0.335485 0.446464
0 0.339559 0.450843
0 0.339559 0.450843
0.645685 0.646021 0.645899
0.67068 0.670985 0.670909
0.665293 0.665614 0.665522
0.800824 0.800931 0.800778
0.809339 0.80943 0.809293
0.70782 0.70808 0.708034
0.70782 0.70808 0.708034
0.70782 0.70808 0.708034
0.95172 0.567315 0
0.846372 0.335271 0.220645
