NATIVE-FC_FX30.cube
TITLE "Generated by Resolve"
LUT_3D_SIZE 9
0.469856 0.100816 0.611231
0.480262 0.11104 0.621836
0 0.0342412 0.53753
0 0.0977188 0.711315
0 0.225254 0.707835
0 0.334066 0.823377
0.185504 0.18613 0.185657
0.185504 0.18613 0.185657
0.185504 0.18613 0.185657
0 0.0384527 0.541848
0 0.0378576 0.5411
0 0.0466621 0.550362
0 0.0615549 0.565652
0 0.21355 0.695781
0 0.323384 0.812558
0.185504 0.18613 0.185657
0.185504 0.18613 0.185657
0.185504 0.18613 0.185657
0 0.11342 0.727459
0 0.105104 0.718914
0 0.120043 0.734264
0 0.215106 0.697398
0 0.222416 0.704906
0 0.335729 0.825223
0.185504 0.18613 0.185657
0.185504 0.18613 0.185657
0.185504 0.18613 0.185657
0 0.33518 0.824537
0 0.338842 0.828534
0.175937 0.176516 0.176089
0.211093 0.21181 0.211276
0 0.308934 0.419699
0.207553 0.208255 0.207736
0.185504 0.18613 0.185657
0.185504 0.18613 0.185657
0.185504 0.18613 0.185657
0.303181 0.303807 0.30341
0.229923 0.526741 0.00181582
0.246235 0.543496 0.0179446
0.247593 0.544869 0.0192874
0 0.886061 0.154467
0 0.847257 0.290257
0 0.861265 0.2392
0.329335 0.542397 0.166262
0.309895 0.552819 0.123827
0.479652 0.480018 0.479438
0.492302 0.492531 0.492226
0.944717 0.535714 1
0.947723 0.538552 1
0.553246 0.553582 0.553246
0.624994 0.625345 0.625162
0.653178 0.653498 0.653391
0.638712 0.639063 0.638911
0.634028 0.634363 0.634211
0.62562 0.625971 0.625803
0.62562 0.625971 0.625803
0.62562 0.625971 0.625803
0.62562 0.625971 0.625803
0.62562 0.625971 0.625803
0.740551 0.740749 0.740673
0.800061 0.800168 0.800015
0.803906 0.804013 0.803861
0.801389 0.80148 0.801343
0.62562 0.625971 0.625803
0.62562 0.625971 0.625803
0.62562 0.625971 0.625803
0.62562 0.625971 0.625803
0.62562 0.625971 0.625803
0.724269 0.724498 0.724453
0.794278 0.794385 0.794247
0.817853 0.817945 0.817792
0.817853 0.817945 0.817792
0.62562 0.625971 0.625803
0.62562 0.625971 0.625803
0.62562 0.625971 0.625803
0.62562 0.625971 0.625803
0.62562 0.625971 0.625803
0.720638 0.720867 0.720821
0.792065 0.792187 0.79205
0.817853 0.817945 0.817792
0.817853 0.817945 0.817792
0.472175 0.102876 0.613428
0.482506 0.113252 0.624109
0 0.0370642 0.540307
0 0.0995956 0.713115
0 0.225116 0.707683
0 0.332891 0.822324
0.185504 0.18613 0.185657
0.185504 0.18613 0.185657
0.185504 0.18613 0.185657
0 0.03299 0.536339
0.493812 0.124163 0.635294
0 0.0398108 0.543343
0 0.0600443 0.564019
0 0.212879 0.695094
0 0.323522 0.81268
0.185504 0.18613 0.185657
0.185504 0.18613 0.185657
0.185504 0.18613 0.185657
0 0.106798 0.720653
0 0.100175 0.713619
0 0.116289 0.730175
0.0943465 0.0945754 0.0944076
0 0.222965 0.705592
0 0.3364 0.826017
0.185504 0.18613 0.185657
0.185504 0.18613 0.185657
0.185504 0.18613 0.185657
0 0.334401 0.823728
0 0.337896 0.827558
0.175372 0.175952 0.175525
0.21091 0.211627 0.211093
0 0.308675 0.419364
0.206516 0.207218 0.206699
0.185504 0.18613 0.185657
0.185504 0.18613 0.185657
0.185504 0.18613 0.185657
0.304982 0.305592 0.305211
0.232273 0.529152 0.00395209
0.248798 0.545876 0.0204929
0.250065 0.547387 0.0219577
0 0.881727 0.169512
0.413703 0.488594 0.355993
0 0.856229 0.256886
0 0.890455 0.139147
0.321172 0.547097 0.147982
0.483101 0.483299 0.483024
0.495903 0.496132 0.495811
0.948943 0.539803 1
0.951492 0.542412 1
0.558679 0.559014 0.558694
0.630137 0.630472 0.63032
0.657526 0.657847 0.657755
0.643336 0.643671 0.643549
0.639872 0.640223 0.640085
0.62562 0.625971 0.625803
0.62562 0.625971 0.625803
0.62562 0.625971 0.625803
0.62562 0.625971 0.625803
0.62562 0.625971 0.625803
0.742443 0.742657 0.742565
0.802701 0.802808 0.802655
0.806439 0.806531 0.806394
0.804105 0.804196 0.804059
0.62562 0.625971 0.625803
0.62562 0.625971 0.625803
0.62562 0.625971 0.625803
0.62562 0.625971 0.625803
0.62562 0.625971 0.625803
0.727092 0.727321 0.72726
0.7953 0.795422 0.79527
0.817853 0.817945 0.817792
0.817853 0.817945 0.817792
0.62562 0.625971 0.625803
0.62562 0.625971 0.625803
0.62562 0.625971 0.625803
0.62562 0.625971 0.625803
0.62562 0.625971 0.625803
0.723918 0.724163 0.724102
0.79324 0.793362 0.79321
0.817853 0.817945 0.817792
0.817853 0.817945 0.817792
0.477791 0.108614 0.619104
0.488075 0.11873 0.62974
0 0.043183 0.546563
0 0.105989 0.719814
0 0.230137 0.712795
0 0.332601 0.82208
0.185504 0.18613 0.185657
0.185504 0.18613 0.185657
0.185504 0.18613 0.185657
0.492714 0.123262 0.634195
0.490639 0.121233 0.632319
0 0.038941 0.542443
0 0.0935836 0.706828
0 0.215412 0.697704
0 0.324773 0.813993
0.185504 0.18613 0.185657
0.185504 0.18613 0.185657
0.185504 0.18613 0.185657
0 0.104662 0.718456
0 0.0992447 0.71284
0 0.116884 0.730861
0.0936141 0.0938277 0.0936599
0 0.228244 0.710903
0 0.338109 0.827787
0.185504 0.18613 0.185657
0.185504 0.18613 0.185657
0.185504 0.18613 0.185657
0 0.336583 0.8262
0.169589 0.170138 0.169726
0.179187 0.179782 0.179339
0.214481 0.215213 0.214664
0 0.310109 0.420905
0.20618 0.206897 0.206363
0.185504 0.18613 0.185657
0.185504 0.18613 0.185657
0.185504 0.18613 0.185657
0.308415 0.308995 0.308629
0.236194 0.53312 0.0080415
0.252857 0.550286 0.024567
0.254902 0.552285 0.0266117
0 0.874418 0.194476
0.424445 0.482963 0.379599
0 0.849393 0.282322
0 0.881575 0.170016
0 0.891859 0.134035
0.488426 0.488624 0.488334
0.501976 0.50222 0.5019
0.954314 0.545281 1
0.956954 0.547753 1
0.566384 0.56672 0.566415
0.637324 0.637675 0.637522
0.663615 0.66392 0.663844
0.650248 0.650568 0.650462
0.647288 0.647608 0.647486
0.62562 0.625971 0.625803
0.62562 0.625971 0.625803
0.62562 0.625971 0.625803
0.62562 0.625971 0.625803
0.62562 0.625971 0.625803
0.745098 0.745296 0.745205
0.805829 0.805936 0.805783
0.809415 0.809522 0.809369
0.807507 0.807614 0.807462
0.62562 0.625971 0.625803
0.62562 0.625971 0.625803
0.62562 0.625971 0.625803
0.62562 0.625971 0.625803
0.62562 0.625971 0.625803
0.730861 0.73109 0.731014
0.79675 0.796857 0.796704
0.817853 0.817945 0.817792
0.817853 0.817945 0.817792
0.62562 0.625971 0.625803
0.62562 0.625971 0.625803
0.62562 0.625971 0.625803
0.62562 0.625971 0.625803
0.62562 0.625971 0.625803
0.728206 0.728435 0.728374
0.79472 0.794842 0.79469
0.817853 0.817945 0.817792
0.817853 0.817945 0.817792
0.491218 0.121813 0.632914
0 0.0333104 0.536675
0 0.053193 0.557076
0 0.117098 0.731182
0 0.241611 0.724651
0.172763 0.173327 0.1729
0.193988 0.194644 0.194156
0.188022 0.188663 0.18819
0.185977 0.186587 0.18613
0.491005 0.121584 0.632685
0.49131 0.121904 0.633005
0 0.0430152 0.546395
0 0.10338 0.717144
0 0.22739 0.710018
0 0.336706 0.826322
0.194049 0.194705 0.194217
0.189975 0.1906 0.190127
0.187457 0.188083 0.187625
0 0.0546578 0.558587
0 0.0488746 0.552544
0 0.0619211 0.566033
0 0.113817 0.72784
0 0.242863 0.725933
0.182788 0.183398 0.18294
0.19881 0.199481 0.198978
0.196246 0.196902 0.196414
0.195056 0.195712 0.195224
0 0.33698 0.826627
0.169986 0.170535 0.170123
0.179843 0.180438 0.179995
0.21326 0.213977 0.213443
0 0.307958 0.418494
0.188998 0.189624 0.189166
0.197879 0.19855 0.198047
0.195773 0.196445 0.195956
0.195056 0.195727 0.195239
0.231235 0.528084 0.00291447
0.241901 0.538811 0.0135805
0.260319 0.556924 0.0327916
0.259648 0.556466 0.0319524
0 0.868055 0.216114
0.427756 0.481422 0.386389
0 0.85185 0.273182
0 0.887526 0.149477
0.327428 0.543542 0.161868
0.485817 0.486015 0.48574
0.499031 0.49926 0.498955
0.951308 0.542214 1
0.953399 0.544366 1
0.561913 0.562249 0.561929
0.633692 0.634028 0.633875
0.660166 0.660487 0.660395
0.647303 0.647639 0.647517
0.644083 0.644419 0.644297
0.62562 0.625971 0.625803
0.62562 0.625971 0.625803
0.62562 0.625971 0.625803
0.62562 0.625971 0.625803
0.62562 0.625971 0.625803
0.745418 0.745632 0.745541
0.802716 0.802823 0.80267
0.806394 0.8065 0.806348
0.80441 0.804517 0.804364
0.62562 0.625971 0.625803
0.62562 0.625971 0.625803
0.62562 0.625971 0.625803
0.62562 0.625971 0.625803
0.62562 0.625971 0.625803
0.731579 0.731792 0.731731
0.796796 0.796902 0.79675
0.817853 0.817945 0.817792
0.817853 0.817945 0.817792
0.62562 0.625971 0.625803
0.62562 0.625971 0.625803
0.62562 0.625971 0.625803
0.62562 0.625971 0.625803
0.62562 0.625971 0.625803
0.728893 0.729122 0.729061
0.794842 0.794965 0.794812
0.817853 0.817945 0.817792
0.817853 0.817945 0.817792
0 0.0467842 0.550484
0 0.0469673 0.550683
0 0.0932021 0.706447
0 0.211185 0.693339
0 0.310338 0.799054
0.187442 0.188083 0.18761
0.213687 0.21442 0.213886
0.209766 0.210483 0.209949
0.207599 0.208301 0.207782
0 0.0464332 0.550134
0 0.0451514 0.548684
0 0.0507362 0.554314
0 0.116625 0.730526
0 0.242725 0.725795
0.182834 0.183444 0.182986
0.214633 0.215366 0.214817
0.212345 0.213062 0.212528
0.210651 0.211368 0.210834
0 0.0446632 0.548104
0 0.0449378 0.548394
0 0.0498054 0.553368
0.0902724 0.090486 0.0903182
0 0.315038 0.803784
0.201907 0.202594 0.202075
0.220874 0.221637 0.221073
0.219104 0.219852 0.219303
0.218051 0.218784 0.218235
0 0.311177 0.799924
0 0.315145 0.803922
0 0.324178 0.813382
0.17792 0.178515 0.178073
0.186755 0.187381 0.186923
0.201328 0.202014 0.201511
0.2215 0.222248 0.221698
0.220203 0.220966 0.220401
0.219623 0.220371 0.219821
0.230961 0.52781 0.00268559
0.242008 0.538918 0.0137026
0.260288 0.556909 0.0327611
0.257984 0.555215 0.0301671
0 0.871321 0.204883
0.423484 0.483436 0.377508
0 0.855695 0.258885
0.335088 0.538964 0.178805
0.318639 0.54844 0.142687
0.50074 0.500984 0.500664
0.948577 0.539437 1
0.969696 0.560403 1
0.972198 0.56289 1
0.575616 0.575967 0.575677
0.648234 0.648554 0.648447
0.674144 0.674449 0.674372
0.660365 0.660685 0.660594
0.657023 0.657343 0.657252
0.643244 0.643565 0.643442
0.646174 0.64651 0.646387
0.650004 0.650324 0.650217
0.651225 0.651545 0.651438
0.651194 0.651514 0.651408
0.767987 0.768139 0.768017
0.812177 0.812268 0.812116
0.816007 0.816098 0.815946
0.813916 0.814008 0.813855
0.634531 0.634867 0.63473
0.639475 0.639811 0.639673
0.644846 0.645182 0.64506
0.646738 0.647059 0.646952
0.646967 0.647303 0.647181
0.749859 0.750057 0.74995
0.81355 0.813642 0.813489
0.834699 0.83476 0.834623
0.834592 0.834669 0.834531
0.631342 0.631678 0.631525
0.637385 0.637736 0.637583
0.643809 0.644144 0.644022
0.645991 0.646326 0.646204
0.646342 0.646677 0.646555
0.746319 0.746517 0.746426
0.81088 0.810971 0.810834
0.833768 0.833844 0.833707
0.833417 0.833478 0.833341
0 0.0984817 0.712108
0 0.0986038 0.71223
0 0.0996109 0.71313
0 0.22327 0.705928
0 0.325185 0.81442
0.204089 0.204791 0.204273
0 0.311208 0.422019
0 0.308202 0.418769
0 0.306188 0.416709
0 0.0977798 0.711391
0 0.0963149 0.70988
0 0.095491 0.708949
0.0924697 0.0926986 0.0925307
0 0.314778 0.803433
0.202579 0.203265 0.202762
0 0.313069 0.423682
0 0.311009 0.42182
0 0.309545 0.42034
0 0.0964065 0.709957
0 0.0969406 0.710521
0 0.0984512 0.712077
0 0.219791 0.70219
0 0.33286 0.822309
0.221973 0.222736 0.222171
0 0.319051 0.429969
0 0.317708 0.428626
0 0.316869 0.427756
0 0.0952773 0.708644
0 0.0960708 0.709621
0 0.0979019 0.711513
0.0907607 0.0909743 0.0908217
0 0.329229 0.818586
0.221927 0.22269 0.222126
0 0.320043 0.430777
0 0.319158 0.430045
0 0.318715 0.429648
0 0.360433 0.472099
0.297658 0.298299 0.297871
0.234958 0.531685 0.00663767
0.232502 0.529381 0.00416571
0.307042 0.554131 0.117708
0 0.882902 0.16553
0.299153 0.55729 0.101427
0.24329 0.540459 0.015198
0.228473 0.525017 0.000137331
0.499184 0.499413 0.499092
0.946822 0.537835 1
0.967361 0.55819 1
0.970306 0.560952 1
0.563622 0.563973 0.563653
0.641978 0.642313 0.642176
0.6701 0.670405 0.670329
0.655924 0.656245 0.656138
0.65301 0.65333 0.653223
0.662104 0.662425 0.662333
0.671839 0.672145 0.672068
0.680613 0.680903 0.680842
0.68162 0.68191 0.681849
0.67808 0.678386 0.678325
0.774823 0.774975 0.774838
0.81828 0.818372 0.818219
0.824735 0.824811 0.824674
0.822889 0.822965 0.822828
0.672297 0.672602 0.672526
0.675044 0.675334 0.675273
0.678355 0.67866 0.678599
0.6795 0.679789 0.679728
0.679774 0.680064 0.680003
0.779385 0.779522 0.779385
0.928969 0.544732 0
0.953552 0.569192 0
0.953521 0.569162 0
0.671382 0.671687 0.671611
0.674403 0.674708 0.674632
0.678019 0.678325 0.678264
0.679316 0.679606 0.679545
0.679622 0.679911 0.67985
0.776303 0.776455 0.776318
0.843824 0.843885 0.843748
0.951827 0.567422 0
0.953079 0.568704 0
0 0.1149 0.728756
0 0.114946 0.728801
0 0.114992 0.728847
0 0.227268 0.709895
0 0.333989 0.823301
0.216327 0.21706 0.21651
0 0.331945 0.443091
0 0.329992 0.441016
0 0.328817 0.439689
0 0.114199 0.728145
0 0.113298 0.727337
0 0.11284 0.726864
0 0.21181 0.69398
0 0.326848 0.8159
0.217502 0.218235 0.217685
0 0.333196 0.444251
0 0.332097 0.443259
0 0.331151 0.442283
0 0.11371 0.727749
0 0.114076 0.728054
0 0.114916 0.728756
0 0.224796 0.707347
0.172778 0.173358 0.17293
0 0.309911 0.420706
0 0.337026 0.448173
0 0.336263 0.447257
0 0.33579 0.446784
0 0.112963 0.726986
0 0.113542 0.727581
0 0.114519 0.728389
0.092546 0.0927749 0.092607
0.169268 0.169818 0.169406
0 0.309895 0.420691
0 0.337377 0.448631
0 0.336934 0.448051
0 0.336706 0.447761
0 0.30573 0.416251
0 0.322179 0.432929
0 0.34728 0.458701
0 0.34551 0.456886
0.238834 0.535882 0.0105287
0.247211 0.544488 0.0189059
0 0.337789 0.449042
0 0.336248 0.447242
0 0.336126 0.44712
0.48275 0.482948 0.482673
0.498604 0.498833 0.498512
0.953597 0.544549 1
0.957122 0.547921 1
0.971313 0.56199 1
0.623178 0.623514 0.623346
0.650935 0.65127 0.651148
0.638437 0.638773 0.638636
0.635111 0.635447 0.635294
0.658152 0.658473 0.658381
0.668086 0.668391 0.668315
0.68011 0.6804 0.680339
0.681285 0.681575 0.681514
0.673961 0.674266 0.674205
0.765682 0.76585 0.765728
0.810224 0.810315 0.810178
0.819257 0.819333 0.819196
0.816892 0.816983 0.816831
0.695994 0.696269 0.696223
0.697429 0.697704 0.697643
0.699016 0.69929 0.699245
0.699443 0.699718 0.699672
0.699489 0.699748 0.699702
0.794278 0.7944 0.794247
0.946151 0.561852 0
0.834058 0.323293 0.208484
0.83418 0.323415 0.208591
0.695399 0.695674 0.695628
0.696986 0.697261 0.697215
0.698787 0.699062 0.699016
0.699275 0.69955 0.699489
0.699306 0.69958 0.699535
0.791348 0.79147 0.791333
0.943893 0.559548 0
0.832212 0.321538 0.206912
0.836042 0.3252 0.210391
0 0.114992 0.728847
0 0.114992 0.728847
0 0.114992 0.728847
0 0.216983 0.699306
0 0.329381 0.818753
0.216022 0.21677 0.21622
0 0.339559 0.450843
0 0.339559 0.450843
0 0.339559 0.450843
0 0.114992 0.728847
0 0.114992 0.728847
0 0.114992 0.728847
0 0.120562 0.734783
0 0.3252 0.814435
0.218906 0.219654 0.219089
0 0.339559 0.450843
0 0.339559 0.450843
0 0.339559 0.450843
0 0.114992 0.728847
0 0.114992 0.728847
0 0.114992 0.728847
0 0.216907 0.699245
0.169619 0.170184 0.169772
0 0.309148 0.419928
0 0.339559 0.450843
0 0.339559 0.450843
0 0.339559 0.450843
0 0.114992 0.728847
0 0.114992 0.728847
0 0.114992 0.728847
0 0.118395 0.73257
0 0.338186 0.827863
0 0.309331 0.420111
0 0.339559 0.450843
0 0.339559 0.450843
0 0.339559 0.450843
0.174701 0.175265 0.174853
0.199374 0.200046 0.199542
0 0.308751 0.419455
0 0.30808 0.418616
0 0.350042 0.46128
0 0.333944 0.444892
0 0.339559 0.450843
0 0.339559 0.450843
0 0.339559 0.450843
0.462287 0.473075 0.453986
0.482551 0.482734 0.48246
0.939452 0.530571 0.999405
0.943557 0.534539 1
0.949905 0.540795 1
0.607813 0.608164 0.60795
0.635874 0.63621 0.636057
0.624125 0.624475 0.624292
0.62034 0.620691 0.620508
0.651499 0.65182 0.651713
0.66157 0.661891 0.661799
0.674281 0.674586 0.674525
0.675715 0.67602 0.675944
0.668528 0.668849 0.668757
0.758495 0.758663 0.758556
0.803922 0.804028 0.803876
0.814237 0.814328 0.814191
0.811841 0.811933 0.811795
0.706935 0.707195 0.707149
0.707301 0.707561 0.707515
0.707759 0.708019 0.707973
0.70782 0.70808 0.708034
0.707668 0.707927 0.707881
0.800122 0.800229 0.800076
0.950011 0.565606 0
0.829297 0.318914 0.204089
0.830747 0.320317 0.205493
0.706508 0.706767 0.706722
0.70695 0.70721 0.707164
0.707485 0.707744 0.707698
0.707607 0.707866 0.70782
0.707454 0.707713 0.707668
0.796689 0.796811 0.796658
0.950591 0.566171 0
0.839109 0.328252 0.213596
0.844266 0.333394 0.218601
0 0.114992 0.728847
0 0.114992 0.728847
0 0.114992 0.728847
0.093431 0.0936599 0.093492
0 0.324224 0.813413
0.212284 0.213016 0.212482
0 0.339559 0.450843
0 0.339559 0.450843
0 0.339559 0.450843
0 0.114992 0.728847
0 0.114992 0.728847
0 0.114992 0.728847
0 0.11635 0.730236
0 0.322408 0.811536
0.216953 0.2177 0.217151
0 0.339559 0.450843
0 0.339559 0.450843
0 0.339559 0.450843
0 0.114992 0.728847
0 0.114992 0.728847
0 0.114992 0.728847
0 0.21355 0.695781
0 0.339315 0.829023
0 0.307897 0.418433
0 0.339559 0.450843
0 0.339559 0.450843
0 0.339559 0.450843
0 0.114992 0.728847
0 0.114992 0.728847
0 0.114992 0.728847
0 0.116487 0.730388
0 0.336843 0.826459
0 0.308614 0.419287
0 0.339559 0.450843
0 0.339559 0.450843
0 0.339559 0.450843
0 0.317983 0.806958
0.178454 0.179034 0.178607
0.220554 0.221302 0.220737
0.221317 0.222065 0.221515
0 0.335485 0.446464
0 0.310399 0.42121
0 0.339559 0.450843
0 0.339559 0.450843
0 0.339559 0.450843
0.44979 0.474006 0.430854
0.474495 0.476493 0.473106
0.501274 0.501518 0.501198
0.938689 0.529793 0.998642
0.942763 0.533715 1
0.60293 0.603281 0.603052
0.630686 0.631022 0.630869
0.619165 0.619516 0.619333
0.615564 0.615915 0.615717
0.645685 0.646021 0.645899
0.65658 0.656901 0.656809
0.67068 0.670985 0.670909
0.672328 0.672633 0.672557
0.665293 0.665614 0.665522
0.755016 0.755199 0.755093
0.800824 0.800931 0.800778
0.81117 0.811261 0.811124
0.809339 0.80943 0.809293
0.70782 0.70808 0.708034
0.70782 0.70808 0.708034
0.70782 0.70808 0.708034
0.70782 0.70808 0.708034
0.70782 0.70808 0.708034
0.80032 0.800427 0.80029
0.948165 0.563897 0
0.827924 0.317357 0.202518
0.829404 0.31902 0.204196
0.70782 0.70808 0.708034
0.70782 0.70808 0.708034
0.70782 0.70808 0.708034
0.70782 0.70808 0.708034
0.70782 0.70808 0.708034
0.797101 0.797208 0.79707
0.95172 0.567315 0
0.840726 0.329747 0.214954
0.846372 0.335271 0.220645
