NATIVE-FC_FX30.cube
TITLE "Generated by Resolve"
LUT_3D_SIZE 33
0.469856 0.100816 0.611231
0.470405 0.101366 0.611627
0.472175 0.102876 0.613413
0.475807 0.106661 0.617319
0.480262 0.11104 0.621836
0.483787 0.114519 0.62533
0.48658 0.117128 0.628
0.491142 0.121736 0.632837
0 0.0342412 0.53753
0 0.0417182 0.545266
0 0.0498817 0.553445
0 0.0585184 0.56231
0 0.0977188 0.711315
0 0.108553 0.722225
0 0.119814 0.734035
0 0.212345 0.694545
0 0.225254 0.707835
0 0.238865 0.721828
0 0.307454 0.795987
0 0.320989 0.809857
0 0.334066 0.823377
0.174777 0.175341 0.174929
0.185504 0.18613 0.185657
0.185504 0.18613 0.185657
0.185504 0.18613 0.185657
0.185504 0.18613 0.185657
0.185504 0.18613 0.185657
0.185504 0.18613 0.185657
0.185504 0.18613 0.185657
0.185504 0.18613 0.185657
0.185504 0.18613 0.185657
0.185504 0.18613 0.185657
0.185504 0.18613 0.185657
0.471946 0.102708 0.613184
0.472236 0.102937 0.613489
0.473091 0.10396 0.614542
0.476341 0.107195 0.617868
0.48069 0.111467 0.622263
0.48423 0.114946 0.625666
0.486961 0.117418 0.628382
0.491432 0.122011 0.633112
0 0.0341039 0.537423
0 0.0411841 0.544747
0 0.0493019 0.55288
0 0.0580606 0.561837
0 0.0970016 0.710582
0 0.107668 0.72134
0 0.118639 0.73283
0 0.211093 0.693248
0 0.223682 0.706249
0 0.236744 0.719646
0 0.304814 0.793225
0 0.317815 0.80679
0 0.330571 0.819974
0.171679 0.172229 0.171817
0.182757 0.183368 0.18291
0.185504 0.18613 0.185657
0.185504 0.18613 0.185657
0.185504 0.18613 0.185657
0.185504 0.18613 0.185657
0.185504 0.18613 0.185657
0.185504 0.18613 0.185657
0.185504 0.18613 0.185657
0.185504 0.18613 0.185657
0.185504 0.18613 0.185657
0.185504 0.18613 0.185657
0.476585 0.107424 0.618112
0.476356 0.10721 0.617868
0.47689 0.107744 0.618357
0.479194 0.109789 0.620523
0.483162 0.113909 0.624765
0.486534 0.117082 0.627955
0.489494 0.120104 0.631159
0.493568 0.123964 0.63505
0 0.035523 0.53872
0 0.0414282 0.544991
0 0.0483864 0.552148
0 0.0568093 0.560555
0 0.0956741 0.709194
0 0.10573 0.719554
0 0.116594 0.73048
0.0918746 0.0920882 0.0919203
0 0.220157 0.702586
0 0.232837 0.715618
0 0.245853 0.729
0 0.31371 0.802319
0 0.326696 0.815747
0 0.338872 0.828565
0.179507 0.180102 0.17966
0.185504 0.18613 0.185657
0.185504 0.18613 0.185657
0.185504 0.18613 0.185657
0.185504 0.18613 0.185657
0.185504 0.18613 0.185657
0.185504 0.18613 0.185657
0.185504 0.18613 0.185657
0.185504 0.18613 0.185657
0.185504 0.18613 0.185657
0.185504 0.18613 0.185657
0.486702 0.11722 0.628122
0.485817 0.116503 0.627222
0.485451 0.116136 0.626841
0.486473 0.117037 0.627878
0.489693 0.120302 0.631357
0.493156 0.123644 0.634638
0 0.032639 0.535988
0 0.0360876 0.5393
0 0.0396277 0.54316
0 0.0440681 0.547478
0 0.0490425 0.552682
0 0.0552682 0.559197
0 0.0930648 0.70631
0 0.102739 0.716457
0 0.112978 0.727001
0.0883192 0.0885176 0.088365
0 0.216205 0.698665
0 0.228794 0.711467
0 0.241611 0.724636
0 0.309743 0.798444
0 0.323293 0.812467
0 0.336614 0.82623
0.178134 0.178714 0.178271
0.185504 0.18613 0.185657
0.185504 0.18613 0.185657
0.185504 0.18613 0.185657
0.185504 0.18613 0.185657
0.185504 0.18613 0.185657
0.185504 0.18613 0.185657
0.185504 0.18613 0.185657
0.185504 0.18613 0.185657
0.185504 0.18613 0.185657
0.185504 0.18613 0.185657
0 0.0384527 0.541848
0 0.0373693 0.540612
0 0.0362097 0.539422
0 0.0360723 0.539284
0 0.0378576 0.5411
0 0.0410315 0.544594
0 0.0438697 0.547265
0 0.0454414 0.54905
0 0.0466621 0.550362
0 0.0484932 0.552254
0 0.051194 0.554788
0 0.0553292 0.559274
0 0.0615549 0.565652
0 0.0999008 0.713344
0 0.109972 0.723918
0 0.121202 0.735302
0 0.21355 0.695781
0 0.226596 0.709209
0 0.240375 0.723369
0 0.3093 0.797986
0 0.323384 0.812558
0 0.337072 0.826703
0.179019 0.179614 0.179187
0.185504 0.18613 0.185657
0.185504 0.18613 0.185657
0.185504 0.18613 0.185657
0.185504 0.18613 0.185657
0.185504 0.18613 0.185657
0.185504 0.18613 0.185657
0.185504 0.18613 0.185657
0.185504 0.18613 0.185657
0.185504 0.18613 0.185657
0.185504 0.18613 0.185657
0 0.0512245 0.554818
0 0.0498054 0.553368
0 0.0480507 0.551781
0 0.0471504 0.550866
0 0.0480507 0.551781
0 0.0502327 0.553811
0 0.0517739 0.555398
0 0.0534371 0.557336
0 0.0543679 0.558267
0 0.0542 0.558114
0 0.0550088 0.558938
0 0.057557 0.561318
0.0558175 0.0559091 0.0558328
0 0.0996109 0.71313
0 0.110185 0.724132
0 0.122377 0.736431
0 0.215274 0.697566
0 0.229038 0.711711
0 0.243305 0.72639
0 0.312947 0.801526
0 0.327291 0.816358
0.169772 0.170321 0.169909
0.182406 0.183017 0.182559
0.185504 0.18613 0.185657
0.185504 0.18613 0.185657
0.185504 0.18613 0.185657
0.185504 0.18613 0.185657
0.185504 0.18613 0.185657
0.185504 0.18613 0.185657
0.185504 0.18613 0.185657
0.185504 0.18613 0.185657
0.185504 0.18613 0.185657
0.185504 0.18613 0.185657
0 0.061799 0.565911
0 0.059144 0.562951
0 0.0565805 0.560311
0 0.0547189 0.558633
0 0.0549935 0.558923
0 0.0569009 0.560647
0 0.0583352 0.562127
0 0.0599069 0.563821
0 0.0610208 0.565103
0 0.0616922 0.565789
0 0.0619974 0.56611
0 0.0931868 0.706432
0 0.096437 0.710018
0 0.102968 0.716716
0 0.113039 0.727062
0.0895399 0.0897536 0.089601
0 0.219394 0.701793
0 0.233677 0.716487
0 0.303319 0.791806
0 0.317998 0.806973
0 0.332341 0.82182
0.17438 0.174945 0.174517
0.185504 0.18613 0.185657
0.185504 0.18613 0.185657
0.185504 0.18613 0.185657
0.185504 0.18613 0.185657
0.185504 0.18613 0.185657
0.185504 0.18613 0.185657
0.185504 0.18613 0.185657
0.185504 0.18613 0.185657
0.185504 0.18613 0.185657
0.185504 0.18613 0.185657
0.185504 0.18613 0.185657
0 0.101808 0.715297
0 0.0987259 0.712367
0 0.095491 0.708949
0 0.093019 0.706264
0 0.0920577 0.705501
0 0.0933547 0.706615
0 0.0957351 0.709285
0 0.0995346 0.713069
0 0.102998 0.716747
0 0.105806 0.719646
0 0.107973 0.72163
0 0.109163 0.722942
0 0.108934 0.722652
0 0.110445 0.724407
0 0.11664 0.730541
0.0919509 0.0921645 0.0920119
0 0.222187 0.704662
0 0.236622 0.719524
0 0.306188 0.794537
0 0.320851 0.80972
0 0.335103 0.824445
0.177127 0.177707 0.177279
0.185504 0.18613 0.185657
0.185504 0.18613 0.185657
0.185504 0.18613 0.185657
0.185504 0.18613 0.185657
0.185504 0.18613 0.185657
0.185504 0.18613 0.185657
0.185504 0.18613 0.185657
0.185504 0.18613 0.185657
0.185504 0.18613 0.185657
0.185504 0.18613 0.185657
0.185504 0.18613 0.185657
0 0.11342 0.727459
0 0.110307 0.724269
0 0.107836 0.721492
0 0.105486 0.71931
0 0.105104 0.718914
0 0.107027 0.720836
0 0.10988 0.723827
0 0.114748 0.728588
0 0.120043 0.734264
0.0891737 0.0893873 0.0892348
0.0938888 0.0941024 0.0939345
0 0.213306 0.695521
0 0.215106 0.697398
0 0.214557 0.696818
0.0946365 0.0948806 0.0946975
0 0.211902 0.694087
0 0.222416 0.704906
0 0.236896 0.719799
0 0.306691 0.795056
0 0.321477 0.810361
0 0.335729 0.825223
0.177844 0.178439 0.177996
0.185504 0.18613 0.185657
0.185504 0.18613 0.185657
0.185504 0.18613 0.185657
0.185504 0.18613 0.185657
0.185504 0.18613 0.185657
0.185504 0.18613 0.185657
0.185504 0.18613 0.185657
0.185504 0.18613 0.185657
0.185504 0.18613 0.185657
0.185504 0.18613 0.185657
0.185504 0.18613 0.185657
0.0920119 0.0922255 0.0920729
0.0905928 0.0908064 0.0906386
0.0892805 0.0894942 0.0893416
0.0883345 0.0885328 0.0883803
0.0880293 0.0882429 0.0880903
0.0899062 0.0901198 0.0899519
0.0934005 0.0936294 0.0934615
0 0.213687 0.695918
0 0.220996 0.703441
0 0.227649 0.710292
0 0.233326 0.716121
0 0.238315 0.721309
0 0.2421 0.725155
0 0.244129 0.727275
0 0.243946 0.727062
0 0.239246 0.722225
0 0.231235 0.713985
0 0.236728 0.719631
0 0.306401 0.794766
0 0.32137 0.810254
0 0.335775 0.825269
0.177874 0.17847 0.178027
0.185504 0.18613 0.185657
0.185504 0.18613 0.185657
0.185504 0.18613 0.185657
0.185504 0.18613 0.185657
0.185504 0.18613 0.185657
0.185504 0.18613 0.185657
0.185504 0.18613 0.185657
0.185504 0.18613 0.185657
0.185504 0.18613 0.185657
0.185504 0.18613 0.185657
0.185504 0.18613 0.185657
0 0.227985 0.710643
0 0.227649 0.710292
0 0.227512 0.71014
0 0.227588 0.710231
0 0.228275 0.710933
0 0.230381 0.713008
0 0.23331 0.716121
0 0.235996 0.718868
0 0.242222 0.725277
0 0.305425 0.793744
0 0.312657 0.801221
0 0.318944 0.80795
0 0.324361 0.813565
0 0.328756 0.817975
0 0.331212 0.820645
0 0.330953 0.820386
0 0.326619 0.815686
0 0.314488 0.803128
0 0.308064 0.796704
0 0.321004 0.809857
0 0.335485 0.824887
0.177646 0.178241 0.177798
0.185504 0.18613 0.185657
0.185504 0.18613 0.185657
0.185504 0.18613 0.185657
0.185504 0.18613 0.185657
0.185504 0.18613 0.185657
0.185504 0.18613 0.185657
0.185504 0.18613 0.185657
0.185504 0.18613 0.185657
0.185504 0.18613 0.185657
0.185504 0.18613 0.185657
0.185504 0.18613 0.185657
0 0.307408 0.795926
0 0.307713 0.796323
0 0.308019 0.796658
0 0.308461 0.797116
0 0.309575 0.798276
0 0.312413 0.800977
0 0.315679 0.804578
0 0.317113 0.806058
0 0.319188 0.808148
0 0.328496 0.817624
0 0.33753 0.827176
0.174258 0.174823 0.174395
0.181445 0.182055 0.181613
0.187625 0.188251 0.187778
0.192401 0.193057 0.192569
0.195041 0.195697 0.195209
0.195071 0.195727 0.195239
0.191516 0.192157 0.191684
0.180957 0.181567 0.181109
0 0.33286 0.822309
0 0.33489 0.824231
0.177142 0.177722 0.177295
0.185504 0.18613 0.185657
0.185504 0.18613 0.185657
0.185504 0.18613 0.185657
0.185504 0.18613 0.185657
0.185504 0.18613 0.185657
0.185504 0.18613 0.185657
0.185504 0.18613 0.185657
0.185504 0.18613 0.185657
0.185504 0.18613 0.185657
0.185504 0.18613 0.185657
0.185504 0.18613 0.185657
0 0.33518 0.824537
0 0.335775 0.825269
0 0.336355 0.825971
0 0.337118 0.826749
0 0.338842 0.828534
0.170825 0.171389 0.170962
0.174487 0.175067 0.17464
0.176379 0.176959 0.176516
0.175937 0.176516 0.176089
0.180056 0.180652 0.180209
0.192264 0.192905 0.192432
0.20235 0.203037 0.202518
0.211093 0.21181 0.211276
0.218906 0.219654 0.219089
0 0.300023 0.410468
0 0.305241 0.415763
0 0.308934 0.419699
0 0.309285 0.420081
0 0.306035 0.416556
0.223224 0.223972 0.223407
0.207553 0.208255 0.207736
0.184985 0.185595 0.185138
0.185504 0.18613 0.185657
0.185504 0.18613 0.185657
0.185504 0.18613 0.185657
0.185504 0.18613 0.185657
0.185504 0.18613 0.185657
0.185504 0.18613 0.185657
0.185504 0.18613 0.185657
0.185504 0.18613 0.185657
0.185504 0.18613 0.185657
0.185504 0.18613 0.185657
0.185504 0.18613 0.185657
0.1944 0.195071 0.194583
0.195193 0.19585 0.195361
0.19617 0.196826 0.196338
0.197543 0.198215 0.197711
0.199374 0.200046 0.199542
0.202823 0.203525 0.203006
0.207294 0.207996 0.207477
0.209537 0.210239 0.20972
0.209522 0.210239 0.209705
0.209049 0.209751 0.209232
0.217395 0.218143 0.217594
0 0.305058 0.41561
0 0.31606 0.42678
0 0.325765 0.436805
0 0.334462 0.445426
0 0.342138 0.453239
0 0.347814 0.459113
0 0.351415 0.462791
0 0.352453 0.463966
0 0.350637 0.461891
0 0.344701 0.456016
0 0.334447 0.445411
0 0.31664 0.427543
0.209155 0.209873 0.209339
0.18761 0.188235 0.187762
0.185504 0.18613 0.185657
0.185504 0.18613 0.185657
0.185504 0.18613 0.185657
0.185504 0.18613 0.185657
0.185504 0.18613 0.185657
0.185504 0.18613 0.185657
0.185504 0.18613 0.185657
0.185504 0.18613 0.185657
0 0.301808 0.412467
0 0.303044 0.413748
0 0.304616 0.415274
0 0.306188 0.416709
0 0.308492 0.419135
0 0.312474 0.423072
0 0.31722 0.428122
0 0.320394 0.431128
0 0.320928 0.431662
0 0.320363 0.431098
0 0.319539 0.43035
0 0.332784 0.443931
0 0.347311 0.458732
0 0.359655 0.471305
0.296117 0.296788 0.296345
0.305394 0.305989 0.305608
0.231388 0.528252 0.00306706
0.237629 0.534646 0.00941482
0.242145 0.539071 0.0138399
0.244205 0.541405 0.016083
0.243259 0.540429 0.0151675
0.239612 0.53669 0.0112917
0.232807 0.529686 0.00447089
0.295521 0.296178 0.295735
0 0.351049 0.462318
0 0.332479 0.443641
0 0.314931 0.425574
0.223529 0.224292 0.223728
0.208087 0.208804 0.20827
0.196918 0.197589 0.197086
0.19144 0.192081 0.191608
0.188647 0.189273 0.188815
0.188052 0.188678 0.188205
0 0.338201 0.44947
0 0.340032 0.451209
0 0.341634 0.45272
0 0.343404 0.45452
0 0.345815 0.457206
0 0.350561 0.461814
0 0.35639 0.467735
0 0.359304 0.470939
0 0.360159 0.471809
0 0.360052 0.471702
0 0.35938 0.471015
0 0.359121 0.470756
0.303807 0.304417 0.304021
0.237491 0.534508 0.009308
0.250675 0.548043 0.0225986
0.263249 0.558618 0.0367285
0.276005 0.561715 0.0569924
0.288273 0.560403 0.079881
0.299657 0.557122 0.102251
0.307759 0.55378 0.119493
0.311788 0.551919 0.127993
0.31249 0.551583 0.129488
0.309743 0.552895 0.123537
0.289998 0.560037 0.0830091
0.271229 0.561135 0.0488594
0.257008 0.554192 0.028809
0.246006 0.543252 0.0177005
0.236698 0.533684 0.00859083
0.228992 0.525628 0.000717174
0.305058 0.305653 0.305287
0.299748 0.300374 0.299977
0.296117 0.296773 0.296345
0.295018 0.295674 0.295247
0.303181 0.303807 0.30341
0.304997 0.305592 0.305211
0.306981 0.307576 0.30721
0.227176 0.52369 0
0.229923 0.526741 0.00181582
0.235615 0.532357 0.00729381
0.241611 0.538506 0.0132906
0.244999 0.542214 0.0166934
0.246235 0.543496 0.0179446
0.246494 0.543755 0.0181888
0.246509 0.54377 0.018204
0.245762 0.542992 0.0174563
0.247593 0.544869 0.0192874
0.27364 0.561547 0.0529335
0.298604 0.557488 0.100328
0.322835 0.546151 0.151888
0 0.886061 0.154467
0 0.872541 0.200839
0 0.861265 0.239185
0 0.852842 0.269444
0 0.847257 0.290257
0.411826 0.489647 0.351873
0.415259 0.487724 0.359533
0 0.8495 0.281987
0 0.861265 0.2392
0 0.872801 0.199954
0 0.882765 0.166018
0 0.890806 0.137881
0.329335 0.542397 0.166262
0.32134 0.547005 0.148333
0.315114 0.550256 0.135241
0.310979 0.552316 0.126253
0.309895 0.552819 0.123827
0.263706 0.558846 0.0373693
0.265965 0.559686 0.0407721
0.268864 0.560601 0.0450141
0.272297 0.561364 0.0509041
0.277134 0.561761 0.0589914
0.284733 0.561028 0.0729381
0.29456 0.558801 0.0923934
0.300877 0.556649 0.10518
0.303624 0.555581 0.110643
0.305135 0.55494 0.113771
0.305547 0.554772 0.114656
0.304814 0.555077 0.113115
0.302861 0.555886 0.109056
0.316381 0.54963 0.137819
0 0.875868 0.189517
0 0.853208 0.268055
0.422934 0.483696 0.376349
0.444953 0.47509 0.421912
0.461234 0.473014 0.452186
0.473335 0.475868 0.471519
0.481422 0.481605 0.481346
0.487572 0.487785 0.487495
0.491127 0.491341 0.491035
0.489021 0.489235 0.48893
0.4804 0.480629 0.480293
0.471992 0.475181 0.469383
0.46453 0.473289 0.45774
0.456977 0.472953 0.444511
0.45069 0.473838 0.432578
0.445319 0.475013 0.422538
0.440879 0.47628 0.413596
0.437964 0.477256 0.407935
0.438071 0.477211 0.408133
0.330465 0.541741 0.168765
0 0.893126 0.129458
0 0.890196 0.139986
0 0.886915 0.15169
0 0.882216 0.16791
0 0.87509 0.192187
0 0.866804 0.220295
0 0.861708 0.237766
0 0.858961 0.247135
0 0.85774 0.251438
0 0.85713 0.253605
0 0.857206 0.253391
0 0.858122 0.250095
0 0.859571 0.245136
0.418082 0.486198 0.365682
0.457954 0.472908 0.446281
0.481163 0.481361 0.481086
0.496971 0.4972 0.496895
0.943771 0.534752 1
0.955978 0.546761 1
0.96556 0.556344 1
0.973037 0.563745 1
0.545251 0.545571 0.545235
0.548028 0.548363 0.548028
0.974136 0.564889 1
0.9682 0.55903 1
0.962936 0.553643 1
0.958419 0.549264 1
0.954376 0.545357 1
0.951629 0.54255 1
0.949493 0.540368 1
0.948547 0.539391 1
0.948211 0.539055 1
0.413016 0.488975 0.354467
0.418387 0.486046 0.366323
0.422721 0.483818 0.375845
0.427955 0.481331 0.386755
0.434073 0.478721 0.399741
0.444068 0.475349 0.41973
0.454154 0.473152 0.439521
0.460594 0.472984 0.451209
0.463523 0.473182 0.456077
0.464866 0.473335 0.458305
0.465965 0.473518 0.459861
0.46627 0.47361 0.460487
0.466026 0.473533 0.459983
0.464775 0.473335 0.458152
0.462486 0.473091 0.454337
0.494972 0.495186 0.494881
0.952682 0.543633 1
0.972503 0.56321 1
0.555154 0.555489 0.555169
0.568795 0.569131 0.568826
0.58027 0.580621 0.580331
0.58941 0.589761 0.589502
0.596475 0.596826 0.596582
0.601694 0.60206 0.601816
0.598886 0.599237 0.598993
0.593545 0.593896 0.593652
0.589105 0.589456 0.589197
0.585 0.585351 0.585077
0.582101 0.582452 0.582177
0.580026 0.580377 0.580087
0.578103 0.578439 0.578164
0.576959 0.57731 0.57702
0.576761 0.577111 0.576822
0.479652 0.480018 0.479438
0.482261 0.482444 0.482185
0.485267 0.485466 0.485176
0.488304 0.488502 0.488212
0.492302 0.492531 0.492226
0.498222 0.498466 0.498146
0.938064 0.529152 0.998016
0.942885 0.533837 1
0.944717 0.535714 1
0.946075 0.537102 1
0.947036 0.538003 1
0.947936 0.538766 1
0.947723 0.538552 1
0.946746 0.537774 1
0.945144 0.536141 1
0.947799 0.538628 1
0.553246 0.553582 0.553246
0.577249 0.5776 0.57731
0.596353 0.596704 0.59646
0.611719 0.61207 0.611872
0.624994 0.625345 0.625162
0.63537 0.635706 0.635569
0.644221 0.644556 0.644434
0.650828 0.651164 0.651057
0.653178 0.653498 0.653391
0.648127 0.648463 0.648341
0.644266 0.644602 0.644465
0.640925 0.64126 0.641123
0.638712 0.639063 0.638911
0.636576 0.636912 0.636774
0.634928 0.635264 0.635111
0.634058 0.634394 0.634241
0.634028 0.634363 0.634211
0.957076 0.547875 1
0.959655 0.55053 1
0.962707 0.55346 1
0.965652 0.55642 1
0.970123 0.560769 1
0.975647 0.56643 1
0.548608 0.548928 0.548592
0.55288 0.553216 0.55288
0.554788 0.555123 0.554788
0.556252 0.556588 0.556268
0.557488 0.557824 0.557504
0.557961 0.558297 0.557977
0.557839 0.558175 0.557855
0.557168 0.557504 0.557183
0.555795 0.55613 0.555795
0.553735 0.554055 0.553735
0.578759 0.57911 0.578836
0.610239 0.61059 0.610376
0.632563 0.632898 0.632746
0.650233 0.650553 0.650446
0.664988 0.665309 0.665217
0.677226 0.677531 0.67747
0.687083 0.687373 0.687312
0.694667 0.694942 0.694896
0.700359 0.700618 0.700572
0.698131 0.698405 0.698344
0.694316 0.694591 0.694545
0.691875 0.692164 0.692103
0.689555 0.689845 0.689784
0.687694 0.687984 0.687922
0.68629 0.68658 0.686519
0.685527 0.685817 0.685756
0.685878 0.686168 0.686107
0.565347 0.565698 0.565377
0.567849 0.568185 0.56788
0.570687 0.571038 0.570733
0.57406 0.574411 0.574105
0.577432 0.577783 0.577493
0.582589 0.58294 0.582666
0.58854 0.588891 0.588617
0.592233 0.592584 0.59234
0.594293 0.594644 0.5944
0.595834 0.596201 0.595941
0.59649 0.596841 0.596597
0.596811 0.597162 0.596918
0.596735 0.597086 0.596841
0.596353 0.596719 0.59646
0.595544 0.595895 0.595651
0.593561 0.593912 0.593668
0.591546 0.591913 0.591653
0.636393 0.636728 0.636591
0.663066 0.663386 0.663294
0.683787 0.684077 0.684016
0.700282 0.700542 0.700496
0.713664 0.713909 0.713863
0.724529 0.724758 0.724697
0.733059 0.733272 0.733211
0.739544 0.739757 0.739666
0.742123 0.742336 0.742245
0.738857 0.739071 0.738994
0.73608 0.736294 0.736217
0.734295 0.734508 0.734447
0.732662 0.732876 0.732815
0.731456 0.73167 0.731609
0.73109 0.731319 0.731258
0.731212 0.731426 0.731365
0.603204 0.603555 0.603326
0.605722 0.606073 0.605844
0.608377 0.608728 0.608515
0.610895 0.611246 0.611032
0.614099 0.61445 0.614237
0.618647 0.618997 0.618799
0.623865 0.624216 0.624048
0.62562 0.625971 0.625803
0.62562 0.625971 0.625803
0.62562 0.625971 0.625803
0.62562 0.625971 0.625803
0.62562 0.625971 0.625803
0.62562 0.625971 0.625803
0.62562 0.625971 0.625803
0.62562 0.625971 0.625803
0.62562 0.625971 0.625803
0.625345 0.625696 0.625528
0.654948 0.655268 0.655161
0.688273 0.688563 0.688502
0.711711 0.711971 0.71191
0.729671 0.7299 0.729839
0.744289 0.744503 0.744411
0.756191 0.756374 0.756268
0.76527 0.765438 0.765316
0.772519 0.772686 0.772549
0.778378 0.778515 0.778378
0.776638 0.776776 0.776638
0.774105 0.774258 0.774121
0.772198 0.772351 0.772213
0.771054 0.771221 0.771084
0.77026 0.770413 0.770291
0.769711 0.769863 0.769741
0.769787 0.769955 0.769818
0.62562 0.625971 0.625803
0.62562 0.625971 0.625803
0.62562 0.625971 0.625803
0.62562 0.625971 0.625803
0.62562 0.625971 0.625803
0.62562 0.625971 0.625803
0.62562 0.625971 0.625803
0.62562 0.625971 0.625803
0.62562 0.625971 0.625803
0.62562 0.625971 0.625803
0.62562 0.625971 0.625803
0.62562 0.625971 0.625803
0.62562 0.625971 0.625803
0.62562 0.625971 0.625803
0.62562 0.625971 0.625803
0.62562 0.625971 0.625803
0.62562 0.625971 0.625803
0.638666 0.639002 0.638865
0.685512 0.685802 0.68574
0.715862 0.716106 0.71606
0.740551 0.740749 0.740673
0.760922 0.761105 0.760983
0.77818 0.778317 0.77818
0.792248 0.79237 0.792233
0.800061 0.800168 0.800015
0.80589 0.805997 0.805844
0.807767 0.807858 0.807721
0.805661 0.805753 0.805615
0.803906 0.804013 0.803861
0.80267 0.802762 0.802625
0.801694 0.801801 0.801663
0.801312 0.801419 0.801282
0.801389 0.80148 0.801343
0.62562 0.625971 0.625803
0.62562 0.625971 0.625803
0.62562 0.625971 0.625803
0.62562 0.625971 0.625803
0.62562 0.625971 0.625803
0.62562 0.625971 0.625803
0.62562 0.625971 0.625803
0.62562 0.625971 0.625803
0.62562 0.625971 0.625803
0.62562 0.625971 0.625803
0.62562 0.625971 0.625803
0.62562 0.625971 0.625803
0.62562 0.625971 0.625803
0.62562 0.625971 0.625803
0.62562 0.625971 0.625803
0.62562 0.625971 0.625803
0.62562 0.625971 0.625803
0.62562 0.625971 0.625803
0.675807 0.676112 0.676051
0.709255 0.709514 0.709468
0.735225 0.735439 0.735363
0.756497 0.75668 0.756573
0.774304 0.774456 0.774319
0.788922 0.789044 0.788907
0.800793 0.8009 0.800748
0.810071 0.810162 0.81001
0.817349 0.817441 0.817288
0.817853 0.817945 0.817792
0.817853 0.817945 0.817792
0.817853 0.817945 0.817792
0.817853 0.817945 0.817792
0.817853 0.817945 0.817792
0.817853 0.817945 0.817792
0.62562 0.625971 0.625803
0.62562 0.625971 0.625803
0.62562 0.625971 0.625803
0.62562 0.625971 0.625803
0.62562 0.625971 0.625803
0.62562 0.625971 0.625803
0.62562 0.625971 0.625803
0.62562 0.625971 0.625803
0.62562 0.625971 0.625803
0.62562 0.625971 0.625803
0.62562 0.625971 0.625803
0.62562 0.625971 0.625803
0.62562 0.625971 0.625803
0.62562 0.625971 0.625803
0.62562 0.625971 0.625803
0.62562 0.625971 0.625803
0.62562 0.625971 0.625803
0.62562 0.625971 0.625803
0.666697 0.667018 0.666926
0.703548 0.703807 0.703761
0.730892 0.731106 0.731044
0.752911 0.753109 0.753002
0.771176 0.771328 0.771191
0.786053 0.786191 0.786038
0.798169 0.798291 0.798138
0.807614 0.807706 0.807568
0.815061 0.815137 0.815
0.817853 0.817945 0.817792
0.817853 0.817945 0.817792
0.817853 0.817945 0.817792
0.817853 0.817945 0.817792
0.817853 0.817945 0.817792
0.817853 0.817945 0.817792
0.62562 0.625971 0.625803
0.62562 0.625971 0.625803
0.62562 0.625971 0.625803
0.62562 0.625971 0.625803
0.62562 0.625971 0.625803
0.62562 0.625971 0.625803
0.62562 0.625971 0.625803
0.62562 0.625971 0.625803
0.62562 0.625971 0.625803
